assets/svg/1F3AB.svg

<svg xmlns="http://www.w3.org/2000/svg" viewBox="0 0 64 64" enable-background="new 0 0 64 64"><path fill="#e0be23" d="m64.06 42.07c0-5.578 0-11.161 0-16.748 0-1.686 0-3.37 0-5.05-3.19-1.14-5.514-4.156-5.738-7.768-10.854 0-21.711 0-32.562 0-6.444 0-12.885 0-19.329 0-.219 3.469-2.374 6.39-5.364 7.627 0 4.8 0 9.602 0 14.404 0 2.56 0 5.12 0 7.681 2.244.929 4.02 2.802 4.858 5.149 11.145 0 22.291 0 33.438 0 6.486 0 12.976 0 19.464 0 .886-2.471 2.811-4.42 5.233-5.291"/><path fill="#ffdd15" d="m62.994 40.968c0-5.582 0-11.165 0-16.751 0-1.68 0-3.368 0-5.05-3.186-1.138-5.513-4.154-5.735-7.766-10.851 0-21.708 0-32.562 0-6.444 0-12.885 0-19.329 0-.221 3.468-2.372 6.389-5.368 7.627 0 4.801 0 9.603 0 14.405 0 2.556 0 5.119 0 7.683 2.25.926 4.02 2.8 4.856 5.147 11.148 0 22.297 0 33.439 0 6.491 0 12.979 0 19.469 0 .888-2.477 2.806-4.425 5.23-5.291"/><path fill="#e0be23" d="m3.176 16.714c-.874.998-1.946 1.801-3.176 2.31v22.09c2.25.926 4.02 2.8 4.856 5.147h52.908c.259-.732.62-1.407 1.05-2.031-8.176-.155-43.34-.999-55.638-27.514"/><g fill="#4f666d"><path d="m33.485 17.589c0 .489-.385.886-.861.886h-22.672c-.479 0-.862-.397-.862-.886l0 0c0-.491.383-.889.862-.889h22.672c.477.0001.861.399.861.889l0 0"/><path d="m33.485 22.368c0 .491-.385.889-.861.889h-22.672c-.479 0-.862-.398-.862-.889l0 0c0-.489.383-.884.862-.884h22.672c.477-.0001.861.394.861.884l0 0"/><path d="m27.903 26.635c0 .316-.287.579-.644.579h-16.865c-.354 0-.642-.263-.642-.579l0 0c0-.325.287-.579.642-.579h16.866c.356.0001.643.255.643.579l0 0"/><path d="m27.903 29.749c0 .319-.287.577-.644.577h-16.865c-.354 0-.642-.258-.642-.577l0 0c0-.32.287-.579.642-.579h16.866c.356 0 .643.258.643.579l0 0"/><path d="m27.903 33.13c0 .32-.287.578-.644.578h-16.865c-.354 0-.642-.258-.642-.578l0 0c0-.321.287-.581.642-.581h16.866c.356 0 .643.26.643.581l0 0"/><path d="m27.903 36.24c0 .323-.287.581-.644.581h-16.865c-.354 0-.642-.258-.642-.581l0 0c0-.318.287-.576.642-.576h16.866c.356 0 .643.258.643.576l0 0"/><path d="m53.02 36.24c0 .323-.288.581-.644.581h-16.866c-.354 0-.641-.258-.641-.581l0 0c0-.318.287-.576.641-.576h16.867c.355 0 .643.258.643.576l0 0"/><path d="m53.02 33.813c0 .322-.288.58-.644.58h-16.866c-.354 0-.641-.258-.641-.58l0 0c0-.316.287-.575.641-.575h16.867c.355-.0001.643.258.643.575l0 0"/></g></svg>

<?xml version="1.0" encoding="utf-8"?>
<!-- Generator: Adobe Illustrator 16.0.0, SVG Export Plug-In . SVG Version: 6.00 Build 0)  -->
<!DOCTYPE svg PUBLIC "-//W3C//DTD SVG 1.1//EN" "http://www.w3.org/Graphics/SVG/1.1/DTD/svg11.dtd">
<svg version="1.1" id="Layer_1" xmlns="http://www.w3.org/2000/svg" xmlns:xlink="http://www.w3.org/1999/xlink" x="0px" y="0px"
	 width="64px" height="64px" viewBox="0 0 64 64" enable-background="new 0 0 64 64" xml:space="preserve">
<path fill="#E0BE23" d="M64.065,42.067c0-5.578,0-11.161,0-16.748c0-1.686,0-3.37,0-5.054c-3.19-1.14-5.514-4.156-5.738-7.768
	c-10.854,0-21.711,0-32.562,0c-6.444,0-12.885,0-19.329,0c-0.219,3.469-2.374,6.39-5.364,7.627c0,4.8,0,9.602,0,14.404
	c0,2.56,0,5.12,0,7.681c2.244,0.929,4.018,2.802,4.858,5.149c11.145,0,22.291,0,33.438,0c6.486,0,12.976,0,19.464,0
	C59.718,44.887,61.643,42.938,64.065,42.067z"/>
<path fill="#FFDD15" d="M62.994,40.968c0-5.582,0-11.165,0-16.751c0-1.68,0-3.368,0-5.054c-3.186-1.138-5.513-4.154-5.735-7.766
	c-10.851,0-21.708,0-32.562,0c-6.444,0-12.885,0-19.329,0C5.147,14.865,2.996,17.786,0,19.024c0,4.801,0,9.603,0,14.405
	c0,2.556,0,5.119,0,7.683c2.25,0.926,4.018,2.8,4.856,5.147c11.148,0,22.297,0,33.439,0c6.491,0,12.979,0,19.469,0
	C58.652,43.782,60.57,41.834,62.994,40.968z"/>
<path fill="#E0BE23" d="M3.176,16.714C2.302,17.712,1.23,18.515,0,19.024v22.088c2.25,0.926,4.018,2.8,4.856,5.147h52.908
	c0.259-0.732,0.62-1.407,1.05-2.031C50.638,44.073,15.477,43.229,3.176,16.714z"/>
<g>
	<path fill="#4F666D" d="M33.485,17.589c0,0.489-0.385,0.886-0.861,0.886H9.952c-0.479,0-0.862-0.397-0.862-0.886l0,0
		c0-0.491,0.383-0.889,0.862-0.889h22.672C33.101,16.701,33.485,17.099,33.485,17.589L33.485,17.589z"/>
</g>
<g>
	<path fill="#4F666D" d="M33.485,22.368c0,0.491-0.385,0.889-0.861,0.889H9.952c-0.479,0-0.862-0.398-0.862-0.889l0,0
		c0-0.489,0.383-0.884,0.862-0.884h22.672C33.101,21.483,33.485,21.878,33.485,22.368L33.485,22.368z"/>
</g>
<g>
	<path fill="#4F666D" d="M27.903,26.635c0,0.316-0.287,0.579-0.644,0.579H10.394c-0.354,0-0.642-0.263-0.642-0.579l0,0
		c0-0.325,0.287-0.579,0.642-0.579H27.26C27.616,26.057,27.903,26.311,27.903,26.635L27.903,26.635z"/>
</g>
<g>
	<path fill="#4F666D" d="M27.903,29.749c0,0.319-0.287,0.577-0.644,0.577H10.394c-0.354,0-0.642-0.258-0.642-0.577l0,0
		c0-0.32,0.287-0.579,0.642-0.579H27.26C27.616,29.17,27.903,29.428,27.903,29.749L27.903,29.749z"/>
</g>
<g>
	<path fill="#4F666D" d="M27.903,33.134c0,0.32-0.287,0.578-0.644,0.578H10.394c-0.354,0-0.642-0.258-0.642-0.578l0,0
		c0-0.321,0.287-0.581,0.642-0.581H27.26C27.616,32.553,27.903,32.813,27.903,33.134L27.903,33.134z"/>
</g>
<g>
	<path fill="#4F666D" d="M27.903,36.245c0,0.323-0.287,0.581-0.644,0.581H10.394c-0.354,0-0.642-0.258-0.642-0.581l0,0
		c0-0.318,0.287-0.576,0.642-0.576H27.26C27.616,35.669,27.903,35.927,27.903,36.245L27.903,36.245z"/>
</g>
<g>
	<path fill="#4F666D" d="M53.021,36.245c0,0.323-0.288,0.581-0.644,0.581H35.511c-0.354,0-0.641-0.258-0.641-0.581l0,0
		c0-0.318,0.287-0.576,0.641-0.576h16.867C52.733,35.669,53.021,35.927,53.021,36.245L53.021,36.245z"/>
</g>
<g>
	<path fill="#4F666D" d="M53.021,33.813c0,0.322-0.288,0.58-0.644,0.58H35.511c-0.354,0-0.641-0.258-0.641-0.58l0,0
		c0-0.316,0.287-0.575,0.641-0.575h16.867C52.733,33.237,53.021,33.496,53.021,33.813L53.021,33.813z"/>
</g>
</svg>
